X:679
T: "Der Knab auf dem Berge"
N: Z1360
O: Europa, Mitteleuropa, Oesterreich
R: Kinder - Lied
M: 3/8
L: 1/16
K: G
d2 | d2c2B2 | c2d2e2 | d4
d2 | d3cB2 | A2B2c2 | B4
d2 | d3cB2 | c2d2e2 | d4
d2 | d3cB2 | A2B2c2 | B4
d2 | d3cB2 | c2d2e2 | d4
d2 | d2c2B2 | A2B2A2 | G4

